svg/google_cloud.svg

<svg xmlns="http://www.w3.org/2000/svg" viewBox="0 0 24 24"><path d="M23 14.75C23 18.2 20.2 21 16.75 21h-9.5C3.8 21 1 18.2 1 14.75c0-2.14 1.08-4.03 2.71-5.15C4.58 5.82 7.96 3 12 3s7.42 2.82 8.29 6.6A6.22 6.22 0 0 1 23 14.75M16.63 17c1.31 0 2.37-1.06 2.37-2.37 0-1.28-1-2.33-2.28-2.38l.03-.5a4.754 4.754 0 0 0-8.32-3.14c1.5.29 2.8 1.11 3.71 2.25L9.5 13.5c-.42-.73-1.21-1.25-2.12-1.25-1.32 0-2.38 1.06-2.38 2.38 0 1.27 1 2.3 2.25 2.37z"/></svg>

<?xml version="1.0" encoding="UTF-8"?><!DOCTYPE svg PUBLIC "-//W3C//DTD SVG 1.1//EN" "http://www.w3.org/Graphics/SVG/1.1/DTD/svg11.dtd"><svg xmlns="http://www.w3.org/2000/svg" xmlns:xlink="http://www.w3.org/1999/xlink" version="1.1" id="mdi-google-cloud" width="24" height="24" viewBox="0 0 24 24"><path d="M23 14.75C23 18.2 20.2 21 16.75 21H7.25C3.8 21 1 18.2 1 14.75C1 12.61 2.08 10.72 3.71 9.6C4.58 5.82 7.96 3 12 3C16.04 3 19.42 5.82 20.29 9.6C21.93 10.72 23 12.61 23 14.75M16.63 17C17.94 17 19 15.94 19 14.63C19 13.35 18 12.3 16.72 12.25L16.75 11.75C16.75 9.13 14.62 7 12 7C10.58 7 9.3 7.62 8.43 8.61C9.93 8.9 11.23 9.72 12.14 10.86L9.5 13.5C9.08 12.77 8.29 12.25 7.38 12.25C6.06 12.25 5 13.31 5 14.63C5 15.9 6 16.93 7.25 17V17H16.63Z" /></svg>
